X:1
T: Peggy's Love
T: 8 x 32S3C (RSCDS Bk 8)
P: Lady Louisa Gordon
C: Athole, a.k.a. "Little Peggy's Love"
C: Arr. T. Traub 8-29-03
K: F
M: 4/4
L: 1/8
|: F>D|"F"C<F F>G A>G A<F|"Gm"D<G G>A B>A B<c|"F"d<f c>A "Bb"G>F G<A|"C"C>F E<G "F"F2 :|
F>e|"F"f<c c>A f>c f<a|"F"f>c f<a "C"g3 a|"F"f>c c<A c<b a>g|"Bb"f>d c<A "C"G3 e|
"F"f<c c>A f>c f<a|"F"f>c f<a "C"g3 a|"F"f>c c<A "Bb"c<b a>g|"C"f>d c<A "F"F2 |]
